markets/USD.svg

<svg width="42" height="42" viewBox="0 0 42 42" fill="none" xmlns="http://www.w3.org/2000/svg">
<circle cx="21" cy="21" r="21" fill="#06061B"/>
<path d="M20.2971 30.4776C19.3841 30.4045 18.5258 30.2036 17.7223 29.8749C16.9188 29.528 16.2249 29.0806 15.6406 28.5328C15.0562 27.9849 14.5906 27.3549 14.2436 26.6428C13.8967 25.9306 13.7141 25.1545 13.6958 24.3145H17.0649C17.1015 25.2093 17.4119 25.958 17.9962 26.5606C18.5988 27.1449 19.3658 27.4828 20.2971 27.5741V22.1506L19.0097 21.9589C17.5306 21.758 16.3528 21.201 15.4762 20.288C14.618 19.3749 14.1888 18.2154 14.1888 16.8093C14.1888 16.0789 14.3532 15.3941 14.6819 14.7549C15.0106 14.0976 15.458 13.5223 16.0241 13.0293C16.5901 12.518 17.2384 12.1071 17.9688 11.7967C18.7175 11.4862 19.4936 11.2945 20.2971 11.2215V8.67407H22.2967V11.2762C23.1184 11.3858 23.8762 11.6049 24.5701 11.9336C25.2641 12.2441 25.8667 12.6458 26.378 13.1389C26.8893 13.6319 27.291 14.198 27.5832 14.8371C27.8936 15.4762 28.0671 16.161 28.1036 16.8915H24.7345C24.698 16.2341 24.4515 15.668 23.9949 15.1932C23.5567 14.7002 22.9906 14.3623 22.2967 14.1797V19.1923L23.228 19.3293C23.9219 19.4389 24.5793 19.6306 25.2001 19.9045C25.821 20.1784 26.3597 20.5345 26.8162 20.9728C27.291 21.411 27.6562 21.9406 27.9119 22.5615C28.1858 23.1641 28.3228 23.8489 28.3228 24.6158C28.3228 25.4376 28.1675 26.1862 27.8571 26.8619C27.5649 27.5193 27.1449 28.1036 26.5971 28.6149C26.0675 29.108 25.4284 29.5189 24.6797 29.8476C23.9493 30.158 23.1549 30.3589 22.2967 30.4502V33.2715H20.2971V30.4776ZM22.2967 27.5467C23.1549 27.4006 23.8215 27.0902 24.2962 26.6154C24.771 26.1223 25.0084 25.5015 25.0084 24.7528C25.0084 24.0589 24.7801 23.5476 24.3236 23.2189C23.8671 22.8719 23.3467 22.6436 22.7623 22.5341L22.2967 22.4519V27.5467ZM20.2971 14.0976C19.5301 14.2071 18.8728 14.4902 18.3249 14.9467C17.7954 15.3849 17.5306 15.9784 17.5306 16.7271C17.5306 17.3662 17.7041 17.8502 18.051 18.1789C18.4162 18.4893 18.891 18.6902 19.4754 18.7815L20.2971 18.9184V14.0976Z" fill="white"/>
</svg>

<svg xmlns="http://www.w3.org/2000/svg" width="42" height="42" fill="none"><circle cx="21" cy="21" r="21" fill="#06061B"/><path fill="#fff" d="M20.297 30.478a8.562 8.562 0 0 1-2.575-.603 7.16 7.16 0 0 1-2.081-1.342 6.436 6.436 0 0 1-1.397-1.89 5.526 5.526 0 0 1-.548-2.329h3.369c.037.895.347 1.644.931 2.247.603.584 1.37.922 2.301 1.013v-5.423l-1.287-.192c-1.48-.201-2.657-.758-3.534-1.671-.858-.913-1.287-2.073-1.287-3.479 0-.73.164-1.415.493-2.054a5.58 5.58 0 0 1 1.342-1.726 6.905 6.905 0 0 1 1.945-1.232 7.913 7.913 0 0 1 2.328-.575V8.674h2v2.602c.821.11 1.58.329 2.273.658a6.26 6.26 0 0 1 1.808 1.205 5.54 5.54 0 0 1 1.205 1.698c.31.64.484 1.324.52 2.055h-3.369a2.583 2.583 0 0 0-.74-1.699c-.437-.493-1.003-.83-1.697-1.013v5.012l.931.137c.694.11 1.351.302 1.972.575.621.274 1.16.63 1.616 1.069.475.438.84.968 1.096 1.588.274.603.41 1.288.41 2.055 0 .822-.154 1.57-.465 2.246a5.36 5.36 0 0 1-1.26 1.753 6.787 6.787 0 0 1-1.917 1.233c-.73.31-1.525.51-2.383.602v2.822h-2v-2.794Zm2-2.931c.858-.146 1.524-.457 2-.932.474-.493.711-1.113.711-1.862 0-.694-.228-1.205-.684-1.534a3.654 3.654 0 0 0-1.562-.685l-.465-.082v5.095Zm-2-13.45c-.767.11-1.424.393-1.972.85-.53.438-.794 1.031-.794 1.78 0 .64.173 1.123.52 1.452.365.31.84.511 1.424.603l.822.136v-4.82Z"/></svg>
